src/assets/images/types/fairy.svg

<svg width="512" height="512" fill="none" xmlns="http://www.w3.org/2000/svg"><path fill-rule="evenodd" clip-rule="evenodd" d="m102.726 405.978 82.122-23.812 70.93 129.691a.243.243 0 0 0 .426 0l70.93-129.691 82.123 23.812a.243.243 0 0 0 .3-.302l-23.816-80.497 126.115-68.975a.242.242 0 0 0 .001-.425l-127.155-69.544 24.855-84.01a.243.243 0 0 0-.3-.302l-84.049 24.371L256.204.126a.242.242 0 0 0-.425 0l-69.004 126.168-84.049-24.371a.243.243 0 0 0-.3.302l24.855 84.01L.126 255.779a.242.242 0 0 0 0 .425l126.115 68.975-23.815 80.497a.243.243 0 0 0 .3.302Zm63.726-149.102 58.179 31.819 31.819 58.178a.242.242 0 0 0 .426 0l31.819-58.178 58.178-31.819a.243.243 0 0 0 0-.426l-58.178-31.819-31.819-58.178a.242.242 0 0 0-.426 0l-31.819 58.178-58.179 31.819a.243.243 0 0 0 0 .426Z" fill="#fff"/></svg>

<svg width="512" height="512" viewBox="0 0 512 512" fill="none" xmlns="http://www.w3.org/2000/svg">
<path fill-rule="evenodd" clip-rule="evenodd" d="M102.726 405.978L184.848 382.166L255.778 511.857C255.871 512.025 256.112 512.025 256.204 511.857L327.134 382.166L409.257 405.978C409.441 406.031 409.612 405.86 409.557 405.676L385.741 325.179L511.856 256.204C512.025 256.112 512.025 255.871 511.857 255.779L384.702 186.235L409.557 102.225C409.612 102.041 409.441 101.87 409.257 101.923L325.208 126.294L256.204 0.126188C256.112 -0.0420597 255.871 -0.0420644 255.779 0.126184L186.775 126.294L102.726 101.923C102.542 101.87 102.371 102.041 102.426 102.225L127.281 186.235L0.126188 255.779C-0.0420597 255.871 -0.0420644 256.112 0.126184 256.204L126.241 325.179L102.426 405.676C102.371 405.86 102.542 406.031 102.726 405.978ZM166.452 256.876L224.631 288.695L256.45 346.873C256.542 347.042 256.784 347.042 256.876 346.873L288.695 288.695L346.873 256.876C347.041 256.784 347.041 256.542 346.873 256.45L288.695 224.631L256.876 166.453C256.784 166.284 256.542 166.284 256.45 166.453L224.631 224.631L166.452 256.45C166.284 256.542 166.284 256.784 166.452 256.876Z" fill="white"/>
</svg>
